blog/2022/05-17-a-walk-in-the-graph/img/droplet_inbound.svg

<svg xmlns="http://www.w3.org/2000/svg" xmlns:xlink="http://www.w3.org/1999/xlink" width="1176" height="261" contentScriptType="application/ecmascript" contentStyleType="text/css" style="width:1176px;height:261px;background:#00000000" preserveAspectRatio="none" version="1.1" viewBox="0 0 1176 261" zoomAndPan="magnify"><g><rect id="digitalocean_droplet" width="211" height="39.789" x="418.99" y="216" fill="#3D176E" codeLine="22" rx="2.5" ry="2.5" style="stroke:#000d19;stroke-width:1.5"/><ellipse cx="433.99" cy="235.894" fill="#E98DF7" rx="11" ry="11" style="stroke:#000d19;stroke-width:1"/><path fill="#000" d="M436.9588,241.5352 Q436.3806,241.832 435.74,241.9727 Q435.0994,242.1289 434.3963,242.1289 Q431.8963,242.1289 430.5681,240.4883 Q429.2556,238.832 429.2556,235.707 Q429.2556,232.582 430.5681,230.9258 Q431.8963,229.2695 434.3963,229.2695 Q435.0994,229.2695 435.74,229.4258 Q436.3963,229.582 436.9588,229.8789 L436.9588,232.5977 Q436.3338,232.0195 435.74,231.7539 Q435.1463,231.4727 434.5213,231.4727 Q433.1775,231.4727 432.49,232.5508 Q431.8025,233.6133 431.8025,235.707 Q431.8025,237.8008 432.49,238.8789 Q433.1775,239.9414 434.5213,239.9414 Q435.1463,239.9414 435.74,239.6758 Q436.3338,239.3945 436.9588,238.8164 L436.9588,241.5352 Z"/><text x="452.99" y="241.78" fill="#D9B8FF" font-family="Helvetica" font-size="17" lengthAdjust="spacing" textLength="169">digitalocean_droplet</text><rect id="digitalocean_vpc" width="180" height="39.789" x="8.49" y="11" fill="#3D176E" codeLine="25" rx="2.5" ry="2.5" style="stroke:#000d19;stroke-width:1.5"/><ellipse cx="23.49" cy="30.895" fill="#E98DF7" rx="11" ry="11" style="stroke:#000d19;stroke-width:1"/><path fill="#000" d="M26.4588,36.5352 Q25.8806,36.832 25.24,36.9727 Q24.5994,37.1289 23.8963,37.1289 Q21.3963,37.1289 20.0681,35.4883 Q18.7556,33.832 18.7556,30.707 Q18.7556,27.582 20.0681,25.9258 Q21.3963,24.2695 23.8963,24.2695 Q24.5994,24.2695 25.24,24.4258 Q25.8963,24.582 26.4588,24.8789 L26.4588,27.5977 Q25.8338,27.0195 25.24,26.7539 Q24.6463,26.4727 24.0213,26.4727 Q22.6775,26.4727 21.99,27.5508 Q21.3025,28.6133 21.3025,30.707 Q21.3025,32.8008 21.99,33.8789 Q22.6775,34.9414 24.0213,34.9414 Q24.6463,34.9414 25.24,34.6758 Q25.8338,34.3945 26.4588,33.8164 L26.4588,36.5352 Z"/><text x="42.49" y="36.78" fill="#D9B8FF" font-family="Helvetica" font-size="17" lengthAdjust="spacing" textLength="138">digitalocean_vpc</text><path fill="#D9B8FF" d="M223.99,8.5 L223.99,53.7656 A2.5,2.5 0 0 0 226.49,56.2656 L344.49,56.2656 A2.5,2.5 0 0 0 346.99,53.7656 L346.99,16 L336.99,6 L226.49,6 A2.5,2.5 0 0 0 223.99,8.5" style="stroke:#000d19;stroke-width:1"/><path fill="#D9B8FF" d="M336.99,6 L336.99,14.75 A1.25,1.25 0 0 0 338.24,16 L346.99,16 L336.99,6" style="stroke:#000d19;stroke-width:1"/><text x="234.99" y="28.067" fill="#1A83AF" font-family="Helvetica" font-size="13" font-weight="bold" lengthAdjust="spacing" text-decoration="line-through" textLength="5">-</text><text x="239.99" y="28.067" fill="#1A83AF" font-family="Helvetica" font-size="13" font-weight="bold" lengthAdjust="spacing" text-decoration="line-through" textLength="5">-</text><text x="244.99" y="28.067" fill="#1A83AF" font-family="Helvetica" font-size="13" font-weight="bold" lengthAdjust="spacing" textLength="20">----</text><text x="268.99" y="28.067" fill="#3D176E" font-family="Helvetica" font-size="13" lengthAdjust="spacing" textLength="58">structure</text><text x="234.99" y="43.2" fill="#FFAF37" font-family="Helvetica" font-size="13" font-weight="bold" lengthAdjust="spacing" text-decoration="line-through" textLength="5">-</text><text x="239.99" y="43.2" fill="#FFAF37" font-family="Helvetica" font-size="13" font-weight="bold" lengthAdjust="spacing" text-decoration="line-through" textLength="5">-</text><text x="244.99" y="43.2" fill="#FFAF37" font-family="Helvetica" font-size="13" font-weight="bold" lengthAdjust="spacing" textLength="20">----</text><text x="268.99" y="43.2" fill="#3D176E" font-family="Helvetica" font-size="13" lengthAdjust="spacing" textLength="27">walk</text><rect id="digitalocean_load_balancer" width="267" height="39.789" x="66.99" y="116" fill="#3D176E" codeLine="33" rx="2.5" ry="2.5" style="stroke:#000d19;stroke-width:1.5"/><ellipse cx="81.99" cy="135.894" fill="#E98DF7" rx="11" ry="11" style="stroke:#000d19;stroke-width:1"/><path fill="#000" d="M84.9588,141.5352 Q84.3806,141.832 83.74,141.9727 Q83.0994,142.1289 82.3963,142.1289 Q79.8963,142.1289 78.5681,140.4883 Q77.2556,138.832 77.2556,135.707 Q77.2556,132.582 78.5681,130.9258 Q79.8963,129.2695 82.3963,129.2695 Q83.0994,129.2695 83.74,129.4258 Q84.3963,129.582 84.9588,129.8789 L84.9588,132.5977 Q84.3338,132.0195 83.74,131.7539 Q83.1463,131.4727 82.5213,131.4727 Q81.1775,131.4727 80.49,132.5508 Q79.8025,133.6133 79.8025,135.707 Q79.8025,137.8008 80.49,138.8789 Q81.1775,139.9414 82.5213,139.9414 Q83.1463,139.9414 83.74,139.6758 Q84.3338,139.3945 84.9588,138.8164 L84.9588,141.5352 Z"/><text x="100.99" y="141.78" fill="#D9B8FF" font-family="Helvetica" font-size="17" lengthAdjust="spacing" textLength="225">digitalocean_load_balancer</text><rect id="digitalocean_kubernetes_cluster" width="311" height="39.789" x="368.99" y="116" fill="#3D176E" codeLine="36" rx="2.5" ry="2.5" style="stroke:#000d19;stroke-width:1.5"/><ellipse cx="383.99" cy="135.894" fill="#E98DF7" rx="11" ry="11" style="stroke:#000d19;stroke-width:1"/><path fill="#000" d="M386.9588,141.5352 Q386.3806,141.832 385.74,141.9727 Q385.0994,142.1289 384.3963,142.1289 Q381.8963,142.1289 380.5681,140.4883 Q379.2556,138.832 379.2556,135.707 Q379.2556,132.582 380.5681,130.9258 Q381.8963,129.2695 384.3963,129.2695 Q385.0994,129.2695 385.74,129.4258 Q386.3963,129.582 386.9588,129.8789 L386.9588,132.5977 Q386.3338,132.0195 385.74,131.7539 Q385.1463,131.4727 384.5213,131.4727 Q383.1775,131.4727 382.49,132.5508 Q381.8025,133.6133 381.8025,135.707 Q381.8025,137.8008 382.49,138.8789 Q383.1775,139.9414 384.5213,139.9414 Q385.1463,139.9414 385.74,139.6758 Q386.3338,139.3945 386.9588,138.8164 L386.9588,141.5352 Z"/><text x="402.99" y="141.78" fill="#D9B8FF" font-family="Helvetica" font-size="17" lengthAdjust="spacing" textLength="269">digitalocean_kubernetes_cluster</text><rect id="digitalocean_firewall" width="215" height="39.789" x="714.99" y="116" fill="#3D176E" codeLine="39" rx="2.5" ry="2.5" style="stroke:#000d19;stroke-width:1.5"/><ellipse cx="729.99" cy="135.894" fill="#E98DF7" rx="11" ry="11" style="stroke:#000d19;stroke-width:1"/><path fill="#000" d="M732.9588,141.5352 Q732.3806,141.832 731.74,141.9727 Q731.0994,142.1289 730.3963,142.1289 Q727.8963,142.1289 726.5681,140.4883 Q725.2556,138.832 725.2556,135.707 Q725.2556,132.582 726.5681,130.9258 Q727.8963,129.2695 730.3963,129.2695 Q731.0994,129.2695 731.74,129.4258 Q732.3963,129.582 732.9588,129.8789 L732.9588,132.5977 Q732.3338,132.0195 731.74,131.7539 Q731.1463,131.4727 730.5213,131.4727 Q729.1775,131.4727 728.49,132.5508 Q727.8025,133.6133 727.8025,135.707 Q727.8025,137.8008 728.49,138.8789 Q729.1775,139.9414 730.5213,139.9414 Q731.1463,139.9414 731.74,139.6758 Q732.3338,139.3945 732.9588,138.8164 L732.9588,141.5352 Z"/><text x="748.99" y="141.78" fill="#D9B8FF" font-family="Helvetica" font-size="17" lengthAdjust="spacing" textLength="173">digitalocean_firewall</text><rect id="digitalocean_image" width="204" height="39.789" x="965.49" y="116" fill="#3D176E" codeLine="42" rx="2.5" ry="2.5" style="stroke:#000d19;stroke-width:1.5"/><ellipse cx="980.49" cy="135.894" fill="#E98DF7" rx="11" ry="11" style="stroke:#000d19;stroke-width:1"/><path fill="#000" d="M983.4588,141.5352 Q982.8806,141.832 982.24,141.9727 Q981.5994,142.1289 980.8963,142.1289 Q978.3963,142.1289 977.0681,140.4883 Q975.7556,138.832 975.7556,135.707 Q975.7556,132.582 977.0681,130.9258 Q978.3963,129.2695 980.8963,129.2695 Q981.5994,129.2695 982.24,129.4258 Q982.8963,129.582 983.4588,129.8789 L983.4588,132.5977 Q982.8338,132.0195 982.24,131.7539 Q981.6463,131.4727 981.0213,131.4727 Q979.6775,131.4727 978.99,132.5508 Q978.3025,133.6133 978.3025,135.707 Q978.3025,137.8008 978.99,138.8789 Q979.6775,139.9414 981.0213,139.9414 Q981.6463,139.9414 982.24,139.6758 Q982.8338,139.3945 983.4588,138.8164 L983.4588,141.5352 Z"/><text x="999.49" y="141.78" fill="#D9B8FF" font-family="Helvetica" font-size="17" lengthAdjust="spacing" textLength="162">digitalocean_image</text><path id="digitalocean_vpc-to-digitalocean_load_balancer" fill="none" d="M117.68,51.37 C134.63,68.49 159.39,93.5 177.42,111.71" codeLine="45" style="stroke:#1a83af;stroke-width:2"/><polygon fill="#1A83AF" points="181.39 115.71 177.91 106.496 177.876 112.153 172.219 112.119 181.39 115.71" style="stroke:#1a83af;stroke-width:2"/><path id="digitalocean_vpc-to-digitalocean_kubernetes_cluster" fill="none" d="M177.12,51.01 C251.93,69.1 364.11,96.22 440.61,114.72" codeLine="46" style="stroke:#1a83af;stroke-width:2"/><polygon fill="#1A83AF" points="445.6 115.92 437.789 109.921 440.739 114.748 435.913 117.698 445.6 115.92" style="stroke:#1a83af;stroke-width:2"/><path id="digitalocean_vpc-to-digitalocean_droplet" fill="none" d="M68.42,51.21 C39.57,77.43 6,124.74 32.49,156 C79.67,211.67 283.4,228.15 413.62,233" codeLine="47" style="stroke:#1a83af;stroke-width:2"/><polygon fill="#1A83AF" points="418.99 233.2 410.145 228.869 413.993 233.014 409.848 236.863 418.99 233.2" style="stroke:#1a83af;stroke-width:2"/><path id="digitalocean_vpc-backto-digitalocean_droplet" fill="none" d="M88.88,55.69 C71.07,82.56 42.45,126.45 67.49,156 C112.28,208.86 298.19,226.38 418.82,232.17" codeLine="53" style="stroke:#ffaf37;stroke-width:2"/><polygon fill="#FFAF37" points="91.85 51.21 83.55 56.513 89.093 55.381 90.224 60.924 91.85 51.21" style="stroke:#ffaf37;stroke-width:2"/><path id="digitalocean_load_balancer-to-digitalocean_droplet" fill="none" d="M253.01,156.01 C305.46,172.82 386.24,197.28 446.19,214.52" codeLine="48" style="stroke:#1a83af;stroke-width:2"/><polygon fill="#1A83AF" points="451.2 215.96 443.645 209.641 446.392 214.586 441.447 217.334 451.2 215.96" style="stroke:#1a83af;stroke-width:2"/><path id="digitalocean_load_balancer-backto-digitalocean_droplet" fill="none" d="M279.3,157.45 C339.4,174.68 420.19,199.14 472.48,215.96" codeLine="54" style="stroke:#ffaf37;stroke-width:2"/><polygon fill="#FFAF37" points="274.28 156.01 281.84 162.323 279.089 157.38 284.031 154.629 274.28 156.01" style="stroke:#ffaf37;stroke-width:2"/><path id="digitalocean_kubernetes_cluster-to-digitalocean_droplet" fill="none" d="M514.09,156.36 C511.25,171.93 510.98,193.9 513.3,210.66" codeLine="49" style="stroke:#1a83af;stroke-width:2"/><polygon fill="#1A83AF" points="514.1 215.68 516.638 206.164 513.315 210.742 508.737 207.42 514.1 215.68" style="stroke:#1a83af;stroke-width:2"/><path id="digitalocean_kubernetes_cluster-backto-digitalocean_droplet" fill="none" d="M536.35,161.39 C538.79,178.16 538.51,200.12 535.49,215.68" codeLine="55" style="stroke:#ffaf37;stroke-width:2"/><polygon fill="#FFAF37" points="535.5 156.36 533.048 165.899 536.329 161.291 540.937 164.572 535.5 156.36" style="stroke:#ffaf37;stroke-width:2"/><path id="digitalocean_firewall-to-digitalocean_droplet" fill="none" d="M754.35,156.01 C700.51,172.69 626.76,196.91 577.3,214.13" codeLine="50" style="stroke:#1a83af;stroke-width:2"/><polygon fill="#1A83AF" points="572.3 215.87 582.114 216.695 577.023 214.229 579.489 209.138 572.3 215.87" style="stroke:#1a83af;stroke-width:2"/><path id="digitalocean_firewall-backto-digitalocean_droplet" fill="none" d="M770.63,157.76 C721.38,174.97 647.47,199.24 593.34,215.96" codeLine="56" style="stroke:#ffaf37;stroke-width:2"/><polygon fill="#FFAF37" points="775.62 156.01 765.804 155.212 770.901 157.664 768.449 162.762 775.62 156.01" style="stroke:#ffaf37;stroke-width:2"/><path id="digitalocean_image-to-digitalocean_droplet" fill="none" d="M965.2,153.68 C867.6,170.64 721.72,196.93 624.79,215" codeLine="51" style="stroke:#1a83af;stroke-width:2"/><polygon fill="#1A83AF" points="619.63 215.96 629.21 218.246 624.546 215.046 627.746 210.381 619.63 215.96" style="stroke:#1a83af;stroke-width:2"/><path id="digitalocean_image-backto-digitalocean_droplet" fill="none" d="M967.99,156.96 C872.14,174.87 727.94,200.86 630.09,217.85" codeLine="57" style="stroke:#ffaf37;stroke-width:2"/><polygon fill="#FFAF37" points="973.09 156.01 963.504 153.751 968.177 156.938 964.989 161.612 973.09 156.01" style="stroke:#ffaf37;stroke-width:2"/></g></svg>

<svg xmlns="http://www.w3.org/2000/svg" width="1176" height="261" preserveAspectRatio="none" style="width:1176px;height:261px;background:#00000000"><rect width="211" height="39.789" x="418.99" y="216" fill="#3D176E" rx="2.5" ry="2.5" style="stroke:#000d19;stroke-width:1.5"/><circle cx="433.99" cy="235.894" r="11" fill="#E98DF7" style="stroke:#000d19;stroke-width:1"/><path d="M436.959 241.535q-.578.297-1.219.438-.64.156-1.344.156-2.5 0-3.828-1.64-1.312-1.657-1.312-4.782t1.312-4.781q1.328-1.656 3.828-1.656.703 0 1.344.156.656.156 1.219.453v2.719q-.625-.579-1.219-.844-.594-.281-1.219-.281-1.344 0-2.031 1.078-.688 1.062-.688 3.156 0 2.094.688 3.172.688 1.062 2.031 1.062.625 0 1.219-.265.594-.281 1.219-.86v2.72Z"/><text x="452.99" y="241.78" fill="#D9B8FF" font-family="Helvetica" font-size="17" textLength="169">digitalocean_droplet</text><rect width="180" height="39.789" x="8.49" y="11" fill="#3D176E" rx="2.5" ry="2.5" style="stroke:#000d19;stroke-width:1.5"/><circle cx="23.49" cy="30.895" r="11" fill="#E98DF7" style="stroke:#000d19;stroke-width:1"/><path d="M26.459 36.535q-.578.297-1.219.438-.64.156-1.344.156-2.5 0-3.828-1.64-1.312-1.657-1.312-4.782t1.312-4.781q1.328-1.656 3.828-1.656.703 0 1.344.156.656.156 1.219.453v2.719q-.625-.578-1.219-.844-.594-.281-1.219-.281-1.344 0-2.031 1.078-.688 1.062-.688 3.156 0 2.094.688 3.172.688 1.062 2.031 1.062.625 0 1.219-.265.594-.282 1.219-.86v2.72Z"/><text x="42.49" y="36.78" fill="#D9B8FF" font-family="Helvetica" font-size="17" textLength="138">digitalocean_vpc</text><path fill="#D9B8FF" d="M223.99 8.5v45.266a2.5 2.5 0 0 0 2.5 2.5h118a2.5 2.5 0 0 0 2.5-2.5V16l-10-10h-110.5a2.5 2.5 0 0 0-2.5 2.5" style="stroke:#000d19;stroke-width:1"/><path fill="#D9B8FF" d="M336.99 6v8.75a1.25 1.25 0 0 0 1.25 1.25h8.75l-10-10" style="stroke:#000d19;stroke-width:1"/><text x="234.99" y="28.067" fill="#1A83AF" font-family="Helvetica" font-size="13" font-weight="bold" text-decoration="line-through" textLength="5">-</text><text x="239.99" y="28.067" fill="#1A83AF" font-family="Helvetica" font-size="13" font-weight="bold" text-decoration="line-through" textLength="5">-</text><text x="244.99" y="28.067" fill="#1A83AF" font-family="Helvetica" font-size="13" font-weight="bold" textLength="20">----</text><text x="268.99" y="28.067" fill="#3D176E" font-family="Helvetica" font-size="13" textLength="58">structure</text><text x="234.99" y="43.2" fill="#FFAF37" font-family="Helvetica" font-size="13" font-weight="bold" text-decoration="line-through" textLength="5">-</text><text x="239.99" y="43.2" fill="#FFAF37" font-family="Helvetica" font-size="13" font-weight="bold" text-decoration="line-through" textLength="5">-</text><text x="244.99" y="43.2" fill="#FFAF37" font-family="Helvetica" font-size="13" font-weight="bold" textLength="20">----</text><text x="268.99" y="43.2" fill="#3D176E" font-family="Helvetica" font-size="13" textLength="27">walk</text><rect width="267" height="39.789" x="66.99" y="116" fill="#3D176E" rx="2.5" ry="2.5" style="stroke:#000d19;stroke-width:1.5"/><circle cx="81.99" cy="135.894" r="11" fill="#E98DF7" style="stroke:#000d19;stroke-width:1"/><path d="M84.959 141.535q-.578.297-1.219.438-.64.156-1.344.156-2.5 0-3.828-1.64-1.312-1.657-1.312-4.782t1.312-4.781q1.328-1.656 3.828-1.656.703 0 1.344.156.656.156 1.219.453v2.719q-.625-.579-1.219-.844-.594-.281-1.219-.281-1.344 0-2.031 1.078-.688 1.062-.688 3.156 0 2.094.688 3.172.688 1.062 2.031 1.062.625 0 1.219-.265.594-.281 1.219-.86v2.72Z"/><text x="100.99" y="141.78" fill="#D9B8FF" font-family="Helvetica" font-size="17" textLength="225">digitalocean_load_balancer</text><rect width="311" height="39.789" x="368.99" y="116" fill="#3D176E" rx="2.5" ry="2.5" style="stroke:#000d19;stroke-width:1.5"/><circle cx="383.99" cy="135.894" r="11" fill="#E98DF7" style="stroke:#000d19;stroke-width:1"/><path d="M386.959 141.535q-.578.297-1.219.438-.64.156-1.344.156-2.5 0-3.828-1.64-1.312-1.657-1.312-4.782t1.312-4.781q1.328-1.656 3.828-1.656.703 0 1.344.156.656.156 1.219.453v2.719q-.625-.579-1.219-.844-.594-.281-1.219-.281-1.344 0-2.031 1.078-.688 1.062-.688 3.156 0 2.094.688 3.172.688 1.062 2.031 1.062.625 0 1.219-.265.594-.281 1.219-.86v2.72Z"/><text x="402.99" y="141.78" fill="#D9B8FF" font-family="Helvetica" font-size="17" textLength="269">digitalocean_kubernetes_cluster</text><rect width="215" height="39.789" x="714.99" y="116" fill="#3D176E" rx="2.5" ry="2.5" style="stroke:#000d19;stroke-width:1.5"/><circle cx="729.99" cy="135.894" r="11" fill="#E98DF7" style="stroke:#000d19;stroke-width:1"/><path d="M732.959 141.535q-.578.297-1.219.438-.64.156-1.344.156-2.5 0-3.828-1.64-1.312-1.657-1.312-4.782t1.312-4.781q1.328-1.656 3.828-1.656.703 0 1.344.156.656.156 1.219.453v2.719q-.625-.579-1.219-.844-.594-.281-1.219-.281-1.343 0-2.031 1.078-.688 1.062-.688 3.156 0 2.094.688 3.172.688 1.062 2.031 1.062.625 0 1.219-.265.594-.281 1.219-.86v2.72Z"/><text x="748.99" y="141.78" fill="#D9B8FF" font-family="Helvetica" font-size="17" textLength="173">digitalocean_firewall</text><rect width="204" height="39.789" x="965.49" y="116" fill="#3D176E" rx="2.5" ry="2.5" style="stroke:#000d19;stroke-width:1.5"/><circle cx="980.49" cy="135.894" r="11" fill="#E98DF7" style="stroke:#000d19;stroke-width:1"/><path d="M983.459 141.535q-.578.297-1.219.438-.64.156-1.344.156-2.5 0-3.828-1.64-1.312-1.657-1.312-4.782t1.312-4.781q1.328-1.656 3.828-1.656.703 0 1.344.156.656.156 1.219.453v2.719q-.625-.579-1.219-.844-.594-.281-1.219-.281-1.343 0-2.031 1.078-.688 1.062-.688 3.156 0 2.094.688 3.172.688 1.062 2.031 1.062.625 0 1.219-.265.594-.281 1.219-.86v2.72Z"/><text x="999.49" y="141.78" fill="#D9B8FF" font-family="Helvetica" font-size="17" textLength="162">digitalocean_image</text><path fill="none" d="m117.68 51.37 59.74 60.34" style="stroke:#1a83af;stroke-width:2"/><path fill="#1A83AF" d="m181.39 115.71-3.48-9.214-.034 5.657-5.657-.034 9.171 3.591z" style="stroke:#1a83af;stroke-width:2"/><path fill="none" d="M177.12 51.01c74.81 18.09 186.99 45.21 263.49 63.71" style="stroke:#1a83af;stroke-width:2"/><path fill="#1A83AF" d="m445.6 115.92-7.811-5.999 2.95 4.827-4.826 2.95 9.687-1.778z" style="stroke:#1a83af;stroke-width:2"/><path fill="none" d="M68.42 51.21C39.57 77.43 6 124.74 32.49 156c47.18 55.67 250.91 72.15 381.13 77" style="stroke:#1a83af;stroke-width:2"/><path fill="#1A83AF" d="m418.99 233.2-8.845-4.331 3.848 4.145-4.145 3.849 9.142-3.663z" style="stroke:#1a83af;stroke-width:2"/><path fill="none" d="M88.88 55.69C71.07 82.56 42.45 126.45 67.49 156c44.79 52.86 230.7 70.38 351.33 76.17" style="stroke:#ffaf37;stroke-width:2"/><path fill="#FFAF37" d="m91.85 51.21-8.3 5.303 5.543-1.132 1.131 5.543 1.626-9.714z" style="stroke:#ffaf37;stroke-width:2"/><path fill="none" d="M253.01 156.01c52.45 16.81 133.23 41.27 193.18 58.51" style="stroke:#1a83af;stroke-width:2"/><path fill="#1A83AF" d="m451.2 215.96-7.555-6.319 2.747 4.945-4.945 2.748 9.753-1.374z" style="stroke:#1a83af;stroke-width:2"/><path fill="none" d="M279.3 157.45c60.1 17.23 140.89 41.69 193.18 58.51" style="stroke:#ffaf37;stroke-width:2"/><path fill="#FFAF37" d="m274.28 156.01 7.56 6.313-2.751-4.943 4.942-2.751-9.751 1.381z" style="stroke:#ffaf37;stroke-width:2"/><path fill="none" d="M514.09 156.36c-2.84 15.57-3.11 37.54-.79 54.3" style="stroke:#1a83af;stroke-width:2"/><path fill="#1A83AF" d="m514.1 215.68 2.538-9.516-3.323 4.578-4.578-3.322 5.363 8.26z" style="stroke:#1a83af;stroke-width:2"/><path fill="none" d="M536.35 161.39c2.44 16.77 2.16 38.73-.86 54.29" style="stroke:#ffaf37;stroke-width:2"/><path fill="#FFAF37" d="m535.5 156.36-2.452 9.539 3.281-4.608 4.608 3.281-5.437-8.212z" style="stroke:#ffaf37;stroke-width:2"/><path fill="none" d="M754.35 156.01c-53.84 16.68-127.59 40.9-177.05 58.12" style="stroke:#1a83af;stroke-width:2"/><path fill="#1A83AF" d="m572.3 215.87 9.814.825-5.091-2.466 2.466-5.091-7.189 6.732z" style="stroke:#1a83af;stroke-width:2"/><path fill="none" d="M770.63 157.76c-49.25 17.21-123.16 41.48-177.29 58.2" style="stroke:#ffaf37;stroke-width:2"/><path fill="#FFAF37" d="m775.62 156.01-9.816-.798 5.097 2.452-2.452 5.098 7.171-6.752z" style="stroke:#ffaf37;stroke-width:2"/><path fill="none" d="M965.2 153.68c-97.6 16.96-243.48 43.25-340.41 61.32" style="stroke:#1a83af;stroke-width:2"/><path fill="#1A83AF" d="m619.63 215.96 9.58 2.286-4.664-3.2 3.2-4.665-8.116 5.579z" style="stroke:#1a83af;stroke-width:2"/><path fill="none" d="M967.99 156.96c-95.85 17.91-240.05 43.9-337.9 60.89" style="stroke:#ffaf37;stroke-width:2"/><path fill="#FFAF37" d="m973.09 156.01-9.586-2.259 4.673 3.187-3.188 4.674 8.101-5.602z" style="stroke:#ffaf37;stroke-width:2"/></svg>
